X:53
T: Klaglied ueber Kriegsnoth
N: A0407
O: Europa, Mitteleuropa, Deutschland
N: M. Praetorius, Mus. Sion. VII. 1609 No. 277.
R: Romanze, Ballade, Lied, Kriegslied
M: 3/1
L: 1/2
K: F
A2 | G4A2 | B4c2 | A4G2 | F4
A2 | G4A2 | B4c2 | A4G2 | F4
F2 | D3EF2 | G2F2E2 | D2C2D2 | C4
G2 | G4G2 | G3AB2 | c3BA2 | G4
G2 | G4G2 | G3AB2 | c3BA2 | G4
F2 | F3GA2 | B2A2G2 | F6 | F4

@@@ Tune index: 366
